X: 224
T: You huayuan
L: 1/8
M: 2/4
K: G
d> e d A [I:setbarnb 1]| 
d g e d | 
d g g e/ d/ | 
d d A d | 
z g f g | 
d ed2 | 
c d A G | 
D4 | 
c> d A d | 
F GD2 | 
c d A G | 
F GD2 | 
G> G F G | 
AA2B | 
d> g e d | 
B F E G | 
A E/ E/D2- | 
D2z2 |]

@@@ Tune index: 9098
